X:1
T:Urbs beata Jerusalem - Victoria
T:#
%%score [ 1 2 3 4 ]
L:1/8
Q:1/4=130
M:none
K:C
V:1 treble nm="S" snm="S"
V:2 treble nm="A" snm="A"
V:3 treble-8 nm="T" snm="T"
V:4 treble nm="B" snm="B"
V:1
 z20 | z24 || z20 | z22 || z20 | z16 |] %6
w: ||||||
[K:A][K:treble][Q:1/4=200][Q:1/4=200][Q:1/4=200][Q:1/4=200] z8 F8- | F4 F4 F8 | E8 A8- | A8 A8 | %10
w: No-|* va ve-|ni- ens|* e|
 (B8 c8) | c16 | z16 | (c8 d8 | e16) | d8 d8 | c8 B8 | d16 | (c8 B8 | A16 | z16 | z8 A8- | A8 B8 | %23
w: coe\- *|lo||Nu\- *||pti- a-|li tha-|la-|mo, *|||Prae\-|* pa-|
 d12 c4 | B8 A8 | (B12 ^A4) | B8 z8 | z16 | z8 B8- | B8 c8 | A8 F8 | B12 A4 | G4 F2 E2 F4) F4 | %33
w: ra- ta,|ut spon-|sa\- *|ta||Co\-|* pu-|le- tur|Do\- *|* * * * mi-|
 E8 z8 | A12 A4 | A8 F8 | G8 A8- | A8 (B8- | B4 ^A2 G2 A8) | B8 z8 | z16 | z16 | B16 | c16 | %44
w: no:|Pla- te-|ae et|mu- ri|* e\-||ius|||Ex|au-|
[Q:1/4=196] A12[Q:1/4=190] A4 |[Q:1/4=188] (G4[Q:1/4=184] F8)[Q:1/4=181] ^E4 | %46
w: ro pu-|ris\- * si-|
[Q:1/4=180] !fermata!F16 |][Q:1/4=130][Q:1/4=130][Q:1/4=130][Q:1/4=130] z20 | z24 || z20 | z22 || %51
w: mo.|||||
 z20 | z16 |][Q:1/4=200][Q:1/4=200][Q:1/4=200][Q:1/4=200] B12 B4 | B8 A8 | (d6 c2 d2 e2 f4- | %56
w: ||Tun- si-|o- ni-|bus, * * * *|
 f2 e2 d4 c4) c4 | (A6 B2 c4 A4 | B8) c8 | z4 c8 c4 | (e6 d2 c2 B2 A4- | A4) G4 F4 A4 | G8 A4 F4- | %63
w: * * * * pres-|su\- * * *|* ris|tun- si-|o\- * * * *|* ni- bus, pres-|su- ris, Ex\-|
 F4 G4 A4 G4 | (F4 f6 e2 d2 c2 | B4 A2 G2 A8- | A4 G4 A4 B4- | B2 A2 A8) G4 | A4 E4 F4 A4- | %69
w: * po- li- ti|la\- * * * *|||* * * pi-|des, Su- is co\-|
 A4 G4 F8 | E8 (F6 E2 | F2 G2 A8 G4) | A4 A4 (B4 c4) | d4 B4 (c4 d4- | d2 c2 B8 ^A4) | %75
w: * ap- tan-|tur lo\- *||cis, co- ap\- *|tan- tur lo- *||
 (B6 c2 d4) B4 | e8 c4 B4 | (A2 B2 c2 d2 e6 d2 | c4 B4 d4 c2 B2 | c8 d8- | d4 B4 c6 B2 | %81
w: cis, * * Per|ma- nus ar-|ti\- * * * * *||||
 A2 G2 A8) G4 | A8 z8 | z4 f8 f4 | f8 e4 e4- | e4 ^d4 (e4 c4 | B16) | ^A8 B8- | B8 c8 | A8 G8 | %90
w: * * * fi-|cis:|Di- spo-|nun- tur per\-|* man- su\- *||ri, Sa\-|* cris|ae- di-|
 F4 F4 G4 G4 | F4 G4 A4 (c4- | c2 B2 A2 G2 F2 E2 A4- | A2 G2 F8) ^E4 | %94
w: fi- ci- is, sa-|cris ae- di- fi\-||* * * ci-|
[Q:1/4=196] F4[Q:1/4=192] c4[Q:1/4=189] d4[Q:1/4=185] B4- | %95
w: is, sa- cris ae\-|
[Q:1/4=182] B4[Q:1/4=178] ^A4[Q:1/4=175] B4[Q:1/4=171] d4 |[Q:1/4=170] !fermata!c24 |] %97
w: * di- fi- ci-|is.|
V:2
 z20 | z24 || z20 | z22 || z20 | z16 |][K:A][K:treble] B,12 B,4 | B,8 A,4 D4- | D4 C4 (D4 C2 B,2 | %9
w: ||||||No- va|ve- ni- ens|* e coe\- * *|
 C8) A,4 A4- | A4 G4 F4 C4 | (F6 E2 F2 G2 A4- | A4) G4 (A4 E4 | A6 G2 F2 E2 F4) | E8 z8 | %15
w: * lo, no\-|* va ve- ni-|ens * * * *|* e coe\- *||lo|
 z4 F8 G4 | A12 G4 | (F6 E2 F4) D4 | E4 A8 G4 | A8 z4 E4 | F8 A8- | A4 G4 F4 D4 | %22
w: Nu- pti-|a- li|tha\- * * la-|mo, tha- la-|mo, Prae-|pa- ra\-|* ta ut spon-|
 (E2 A,2 A8 G2 F2 | G8 A8 | F4 =G4 F8- | F4 E4 F8) | F8 z4 E4 | F4 E8 D4 | (B,4 C4 D4) E4 | %29
w: sa\- * * * *||||ta Co-|pu- le- tur|Do\- * * mi-|
 F8 z4 E4 | F8 D8 | B,4 (E4 D2 C2 F4- | F2 E2 E8) ^D4 | E8 C8- | C4 C4 C8 | F8 (^D8 | E8) C8 | %37
w: no, co-|pu- le-|tur Do\- * * *|* * * mi-|no: Pla\-|* te- ae|et mu\-|* ri|
 (F12 E4 | F16) | F8 z8 | z16 | z16 | z4 E4 (F4 G4 | A8) E4 (A4- | A2 G2 F2 E2 F4) (E4- | %45
w: e\- *||ius|||Ex au\- *|* ro pu\-|* * * * * ris\-|
 E4 D4) C8 | !fermata!C16 |] z20 | z24 || z20 | z22 || z20 | z16 |] z16 | z8 F8- | F4 F4 F8 | %56
w: * * si-|mo.||||||||Tun\-|* si- o-|
 D8 (A6 G2 | F2 E2 F8) C4 | E8 C4 F4 | F8 A8- | A4 G4 A4 E4 | (F4 G4 A4 F4- | F4 ^E4) F8 | z16 | %64
w: ni- bus *|* * * pres-|su- ris, tun-|si- o\-|* ni- bus, pres-|su\- * * *|* * ris||
 F6 G2 (A4 B4) | B,4 (F8 E2 D2 | E8) F8 | E4 E8 B,4 | C8 z4 A,4 | B,8 D8- | D4 C4 C4 F,4 | %71
w: Ex- po- li\- *|ti la\- * *|* pi-|des, la- pi-|des Su-|is co\-|* ap- tan- tur|
 (F4 E4 D4 B,4 | F16) | F8 z4 (F4- | F2 E2 E4 F4) C4 | z4 F8 G4- | G4 E8 E4 | (F4 E8) A,4 | %78
w: lo\- * * *||cis, lo\-|* * * * cis|Per ma\-|* nus ar-|ti\- * fi-|
 (E8 F8) | z4 F8 =G4 | F4 D4 (E2 A,2 E4- | E4) ^D4 E8- | E8 F8- | F4 F4 (F6 G2 | A4 D4 (E6 F2 | %85
w: cis, *|per ma-|nus ar- ti\- * *|* fi- cis:|* Di\-|* spo- nun\- *|* tur per\- *|
 =G4) F4 G4 F4- | F4 E2 D2 E8) | F8 z4 E4 | ^D4 E4 A,4 (A4- | A2 G2 F6 E2 E4- | E4) ^D4 E8 | %91
w: * man- su\- *||ri Sa-|cris ae- di- fi\-||* ci- is|
 z4 (E6 D2 C2 B,2 | C4) C4 D4 E4 | A,4 B,4 C4 G4 | ^A8 B4 B,4 | (D4 C4 D2 B,2 B4- | %96
w: sa\- * * *|* cris ae- di-|fi- ci- is, sa-|cris ae- di-|fi\- * * * *|
 B4) (^A2 G2) !fermata!A16 |] %97
w: * ci\- * is.|
V:3
[K:A] F2 F2 F2 E2 A2"^Urbs beata Ierusalem" A2 B2 c2"^For the dedication of a church" c4 | %1
w: Urbs be- a- ta Ie- ru- sa\- * lem|
 c2 d2 e2 d2 d2 c2 B2 d2 c2 B2 A4 || %2
w: Di\- * * cta pa- cis vi- si- o * *|
"^Tomas Luis de Victoria\n(1548-1611)" A2 B2 d2 c2 B2 A2 B2 A2 B4 | %3
w: Quae con- stru- i- tur in cae\- * lis|
 B2 c2 A2 G2 F2 B2 B2 A2 F2 E4 || A2 A2 A2 F2 G2 A2 B2 A2 B4 | B2 c2 A2 A2 F2 E2 F4 |] z16 | z16 | %8
w: Vi- vis ex la- pi- di- bus * * *|Et an- ge- lis co- ro- na- * ta|Ut spon- sa- ta co- mi- te.|||
 z8 F8- | F4 F4 F8 | E8 A8- | A8 A8 | (B8 c8) | c8 z8 | A6 B2 c4 A4 | (d6 e2 f4) d4 | e8 z4 B4- | %17
w: No\-|* va ve-|ni- ens|* e|coe\- *|lo|Nu- pti- a- li|tha\- * * la-|mo nu\-|
 B2 c2 d4 (A4 B4) | (c4 A4) B8 | c4 A4 c4 e4- | e4 d4 c4 e4 | d16 | A8 z8 | z4 d4 e4 f4- | %24
w: * pti- a- li *|tha\- * la-|mo, Prae- pa- ra\-|* ta ut spon-|sa-|ta,|prae- pa- ra\-|
 f4 e4 c4 d4 | (B8 c8) | B8 z8 | z4 e4 f8 | d4 c4 (B6 c2 | d2 e2 f2 d2 e2 d2 c2 B2 | c4) c4 B4 f4 | %31
w: * ta, ut spon-|sa\- *|ta|Co- pu-|le- tur Do\- *||* mi- no, co-|
 =g8 f4 F4 | c8 B8 | E4 e8 e4 | e12 c4- | c4 f8 B4- | B4 (e6 d2 c2 B2 | c4 d8 c2 B2 | c16) | %39
w: pu- le- tur|Do- mi-|no: Pla- te-|ae et|* mu- ri\-|* e\- * * *|||
 B8 z4 e4 | f8 e4 d4 | (c4 B8) ^A4 | (B6 c2 d8) | z8 z4 e4 | f8 d4 c4 | (B6 F2 A4) G4 | %46
w: ius Ex|au- ro pu-|ris\- * si-|mo * *|ex|au- ro pu-|ris\- * * si-|
 !fermata!F16 |] F2 F2 F2 E2 A2 A2 B2 c2 c4 | c2 d2 e2 d2 d2 c2 B2 d2 c2 B2 A4 || %49
w: mo.|Por- tae ni- tent mar- ga- ri\- * tis|A\- * * dy- tis pa- ten- ti- bus * *|
 A2 B2 d2 c2 B2 A2 B2 A2 B4 | B2 c2 A2 G2 F2 B2 B2 A2 F2 E4 || A2 A2 A2 F2 G2 A2 B2 A2 B4 | %52
w: Et vir- tu- te me- ri- to\- * rum|II- luc in- tro- du- ci- tur * * *|Om- nis qui ob Chri- sti no\- * men|
 B2 c2 A2 A2 F2 E2 F4 |] z16 | z16 | z16 | z8 F8- | F4 F4 F8 | E8 A8- | A8 A8 | (B8 c8) | c16 | %62
w: Hic in mun- do pre- mi- tur.||||Tun\-|* si- o-|ni- bus,|* pres-|su\- *|ris|
 z8 (c8 | d8 e8- | e4) d4 d8- | d8 c8 | B8 d8 | (c8 B8 | A16) | z16 | z8 A8- | A8 B8 | d12 c4 | %73
w: Ex\-||* po- li\-|* ti|la- pi-|des *|||Su\-|* is|co- ap-|
 B8 A8 | (B8 c8) | B8 z8 | z8 z4 B4 |"^ma" c8 A8- | A4 G4 F8- | F8 B8 | (B8 A6 G2 | F8 E8) | %82
w: tan- tur|lo\- *|cis|Per-|* nus|* ar- ti\-|* fi-|cis: * *||
 A12 A4 | A16 | F8 G4 ^A4 | (B12 ^A4 | B16) | c8 z8 | z16 | z16 | B16- | B8 c8 | A12 A4 | F8 G8 | %94
w: Di- spo-|nun\--|tur per- man-|su\- *||ri|||Sa\-|* cris-|ae di-|fi- ci-|
 F16- | F16 | !fermata!F24 |] %97
w: is.|||
V:4
 z20 | z24 || z20 | z22 || z20 | z16 |][K:A][K:bass] z16 | z16 | z16 | z16 | z8 F,8- | %11
w: ||||||||||No\-|
 F,4 F,4 F,8 | E,8 A,8- | A,4 A,4 (B,8 | C8) C8 | B,6 C2 D4 B,4 | A,4 A,,4 E,8 | %17
w: * va ve-|ni- ens|* e coe\-|* lo,|Nu- pti- a- li|tha- la- mo,|
 B,,6 C,2 D,4 B,,4 | A,,8 E,8 | A,,16 | z8 z4 A,4 | B,8 D8- | D4 C4 B,8- | B,8 A,8 | %24
w: nu- pti- a- li|tha- la-|mo,|Prae-|pa- ra\-|* ta, ut|* spon-|
 (B,4 E,4 F,4 D,4 | =G,8 F,8) | B,,4 B,4 C8 | A,8 F,4 (B,4- | B,4 A,4 B,4 E,4 | B,8 A,6 G,2 | %30
w: sa\- * * *||ta, Co- pu-|le- tur Do\-|||
 F,8) B,8 | E,8 z8 | z16 | z8 A,8- | A,4 A,4 A,8 | F,8 B,8 | E,8 (A,6 G,2 | F,4 D,4 =G,8) | F,16 | %39
w: * mi-|no:||Pla\-|* te- ae|et mu-|ri e\- *||ius|
 z4 B,4 C8 | A,4 F,4 (A,4 B,4 | C4 D4) C8 | B,4 E,4 B,8 | A,4 F,4 (A,6 G,2 | F,2 E,2 D,6 C,2 A,,4 | %45
w: Ex au-|ro pu- ris\- *|* * si-|mo, ex au-|ro pu- ris\- *||
 B,,8) C,8 | !fermata!F,16 |] z20 | z24 || z20 | z22 || z20 | z16 |] z16 | z16 | B,12 B,4 | %56
w: * si-|mo.|||||||||Tun- si-|
 B,8 A,8 | D4 C4 (F,2 G,2 A,4- | A,4 G,4) A,4 F,4- | F,4 F,4 F,8 | E,8 (A,6 G,2 | F,4) ^E,4 (F,8 | %62
w: o- ni-|bus pres- su\- * *|* * ris, tun\-|* si- o-|ni- bus *|* pres- su\-|
 C,8) F,8 | B,6 B,2 A,4 E,4 | (B,6 A,2 F,4 =G,4- | G,2 F,2 D,2 E,2 F,2 ^G,2 A,4) | %66
w: * ris,|Ex- po- li- ti|la\- * * *||
 E,8 D,4 B,,2 B,,2 | C,4 A,,4 E,6 E,2 | A,,8 z8 | z4 E,4 F,8 | (A,6 G,2 F,2 E,2 D,4- | %71
w: pi- des, ex- po-|li- ti la- pi-|des|Su- is|co\- * * * *|
 D,4 C,4 D,4 E,4 | (D,6 C,2 B,,4 ^A,,4 | B,,8 F,8 | =G,8 F,8) | B,,8 B,8 | C8 A,4 G,4 | %77
w: * ap- tan- tur|lo\- * * *|||cis, Per|ma- nus ar-|
 F,2 G,2 A,2 B,2 C6 B,2 | A,4 B,8 ^A,2 G,2 | ^A,4) A,4 (B,6 C2 | D8) z8 | z16 | z8 D,8- | %83
w: ti- * * * * *||* fi- cis: *|||Di-|
 D,4 D,4 D,8- | D,8 C,8 | B,,8 (E,4 F,4) | =G,16 | F,8 z8 | z16 | z16 | z8 E,8 | %91
w: * spo- nun\-|* tur|per- man\- *|su-|ri|||Sa-|
 ^D,4 E,4 A,,4 (A,4- | A,2 G,2 F,2 E,2 D,4 C,4 | D,4) D,4 C,8 | z4 F,4 B,,4 B,,4 | F,,8 B,,4 B,,4 | %96
w: cris ae- di- fi\-||* ci- is|sa- cris ae-|di- fi\-- ci-|
 !fermata![F,,F,]24 |] %97
w: is.|

